X:32
T:Reel 32
M:4/4
K:Gmaj
L:1/8
d|g3d Bdgd|Bdde dcBA|g3d edeg|fdef gdef|g2dB GBdf|gfaf gdBc|GBdf edeg|fdef g2|d2|gbd'b e'bd'b|c'bag fgde|gabc' d'be'b|d'bgb a2dd|gabc' d'bag| (3fed ad bdaf|gabc' d'e'd'b|c'bag fdef|gdBd edBd|gdBc dGBd|gdBd gdeg|abc'b a2 (3def |gbd'b e'bd'b|c'bag fgef|g2Bd e2dB|dBgA BGG|
